status/symbolic/microphone-sensitivity-muted-symbolic.svg

<?xml version="1.0" encoding="UTF-8" standalone="no"?>
<svg
   height="16"
   width="16"
   version="1.1"
   id="svg6"
   xml:space="preserve"
   xmlns="http://www.w3.org/2000/svg"
   xmlns:svg="http://www.w3.org/2000/svg"><defs
     id="defs10" /><path
     id="path2-3"
     style="font-variation-settings:normal;opacity:0.5;isolation:auto;mix-blend-mode:normal;vector-effect:none;fill:#555761;fill-opacity:1;stroke:none;stroke-width:1;stroke-linecap:butt;stroke-linejoin:miter;stroke-miterlimit:4;stroke-dasharray:none;stroke-dashoffset:0;stroke-opacity:1;-inkscape-stroke:none;marker:none;stop-color:#000000"
     d="M 8,1 C 6.892001,1 6,1.8920011 6,3 v 3.037109 l 3.810547,3.8125 C 9.931358,9.591677 10,9.30464 10,9 V 3 C 10,1.8920011 9.107999,1 8,1 Z M 3,6 v 1 h 1 v 2 a 3.981,3.981 0 0 0 3,3.861328 V 15 H 6 v 1 h 4 V 15 H 9 v -2.138672 a 3.981,3.981 0 0 0 1.392578,-0.664062 L 9.681641,11.486328 C 9.202545,11.810107 8.624237,12 8,12 6.338002,12 5,10.661998 5,9 V 6.802734 L 4.1972656,6 Z m 8,0 v 3 c 0,0.583066 -0.167556,1.124454 -0.453125,1.583984 l 0.71875,0.720704 A 3.981,3.981 0 0 0 12,9 V 7 h 1 V 6 Z M 6,7.802734 V 9 c 0,1.107999 0.892001,2 2,2 0.34625,0 0.671646,-0.08665 0.955078,-0.240234 z" /><rect
     style="font-variation-settings:normal;vector-effect:none;fill:#555761;fill-opacity:1;stroke:none;stroke-width:0.992001;stroke-linecap:square;stroke-linejoin:miter;stroke-miterlimit:4;stroke-dasharray:none;stroke-dashoffset:0;stroke-opacity:1;-inkscape-stroke:none;marker:none;stop-color:#000000"
     id="rect2480-1-6"
     width="1.248"
     height="19.799999"
     x="-0.16605946"
     y="1.8671013"
     rx="0.5"
     ry="0.5"
     transform="rotate(-45)" /></svg>

<svg
        xmlns='http://www.w3.org/2000/svg'
        xmlns:svg='http://www.w3.org/2000/svg'
        id='svg6'
        width='16'
        height='16'>
  <path
          id='path2-3'
          opacity='0.5'
          fill='url(#gpa:foreground) #555761'
          fill-opacity='1'
          fill-rule='nonzero'
          stroke='none'
          stroke-opacity='1'
          stroke-width='1'
          stroke-linecap='butt'
          stroke-linejoin='miter'
          stroke-miterlimit='4'
          stroke-dasharray='none'
          stroke-dashoffset='0'
          marker-start='none'
          marker-mid='none'
          marker-end='none'
          d='M 8 1 C 6.892 1, 6 1.892, 6 3 L 6 6.03711 L 9.81055 9.84961 C 9.93136 9.59168, 10 9.30464, 10 9 L 10 3 C 10 1.892, 9.108 1, 8 1 Z M 3 6 L 3 7 L 4 7 L 4 9 A 3.981 3.981 0 0 0 7 12.8613 L 7 15 L 6 15 L 6 16 L 10 16 L 10 15 L 9 15 L 9 12.8613 A 3.981 3.981 0 0 0 10.3926 12.1973 L 9.68164 11.4863 C 9.20255 11.8101, 8.62424 12, 8 12 C 6.338 12, 5 10.662, 5 9 L 5 6.80273 L 4.19727 6 Z M 11 6 L 11 9 C 11 9.58307, 10.8324 10.1245, 10.5469 10.584 L 11.2656 11.3047 A 3.981 3.981 0 0 0 12 9 L 12 7 L 13 7 L 13 6 Z M 6 7.80273 L 6 9 C 6 10.108, 6.892 11, 8 11 C 8.34625 11, 8.67165 10.9134, 8.95508 10.7598 Z'
          class="foreground"
          style='mix-blend-mode: normal; isolation: auto'>
  </path>
  <rect
          id='rect2480-1-6'
          transform='rotate(-45, 0, 0)'
          fill='url(#gpa:foreground) #555761'
          fill-opacity='1'
          fill-rule='nonzero'
          stroke='none'
          stroke-opacity='1'
          stroke-width='0.992001'
          stroke-linecap='square'
          stroke-linejoin='miter'
          stroke-miterlimit='4'
          stroke-dasharray='none'
          stroke-dashoffset='0'
          marker-start='none'
          marker-mid='none'
          marker-end='none'
          x='-0.166059'
          y='1.8671'
          width='1.248'
          height='19.8'
          rx='0.5'
          ry='0.5'
          class="foreground">
  </rect>
</svg>
